packages/icons/raw/imported/SportMMA.svg

<svg width="32" height="32" viewBox="0 0 32 32" fill="none" xmlns="http://www.w3.org/2000/svg">
<path d="M12.6397 13.4736L6.22659 10.1094C5.57858 9.77927 5.31549 8.97693 5.63725 8.31213C5.95902 7.64733 6.7411 7.37742 7.38911 7.70752L14.3039 11.3273C14.3039 11.3273 15.3831 16.7424 12.1392 21.3988M11.5931 8.63655C11.425 8.23013 11.4237 7.74828 11.6313 7.31938C11.9738 6.61169 12.5474 6.44945 12.986 6.51245C13.0382 6.5123 13.0591 6.52295 13.1009 6.54425C13.5499 6.63935 13.9472 6.89521 14.2405 7.25844C14.7745 7.87798 15.9047 8.98839 17.7957 9.65762C18.8926 10.0293 19.3951 10.6061 19.9825 11.6538C20.3391 12.3167 20.7482 13.0865 21.0739 13.8672C21.0739 13.8672 21.6527 15.6324 23.0324 16.3352L26.5 18.0558M10.7661 15.5134L6.43646 13.3078C5.78845 12.9777 5.52535 12.1754 5.84712 11.5106L6.39027 10.3884M9.15435 17.6596L6.78427 16.4522C6.13626 16.1221 5.87316 15.3197 6.19493 14.6549L6.75342 13.5011M23.4358 25.5L19.7332 23.6366C17.6218 22.5075 17.1207 22.4661 17.1207 22.4661C17.1207 22.4661 16.5462 22.3071 15.7526 22.1702C13.2988 21.8024 11.3665 21.2725 9.11954 20.2081L7.47921 19.3724C6.8312 19.0423 6.35452 18.1312 6.67629 17.4664L7.08767 16.6165M25.5548 17.6348L22.0777 24.8189M16.4638 11.6297C16.7319 10.9682 17.2223 10.0512 18.7457 10.2393" stroke="black" stroke-miterlimit="10" stroke-linecap="round" stroke-linejoin="round"/>
</svg>

<svg width="32" height="32" fill="none" xmlns="http://www.w3.org/2000/svg"><path d="m12.64 13.474-6.413-3.365a1.355 1.355 0 0 1-.59-1.797 1.29 1.29 0 0 1 1.752-.604l6.915 3.62s1.08 5.414-2.165 10.07m-.546-12.761a1.614 1.614 0 0 1 .038-1.318c.343-.707.916-.87 1.355-.807.052 0 .073.011.115.032.449.095.846.351 1.14.714.534.62 1.664 1.73 3.555 2.4 1.097.371 1.6.948 2.187 1.996.356.663.765 1.432 1.09 2.213 0 0 .58 1.765 1.96 2.468l3.467 1.72m-15.734-2.542-4.33-2.205a1.355 1.355 0 0 1-.589-1.797l.543-1.123m2.764 7.272-2.37-1.208a1.355 1.355 0 0 1-.59-1.797l.56-1.154M23.435 25.5l-3.703-1.863c-2.111-1.13-2.612-1.17-2.612-1.17s-.575-.16-1.368-.297c-2.454-.368-4.386-.898-6.633-1.962l-1.64-.836c-.649-.33-1.125-1.24-.804-1.906l.412-.85m18.467 1.019-3.477 7.184m-5.614-13.19c.268-.66.758-1.578 2.282-1.39" stroke="#000" stroke-miterlimit="10" stroke-linecap="round" stroke-linejoin="round"/></svg>
